X: 27285
T: Miss Walker's Favourite
R: reel
M: 4/4
K: Dmajor
d2Fd AdFd|GdFd edef|d2 Fd AdFd|gfea fdd2:|
faab afdf|gbaf edeg|faab afdf|gfea fdd2|
faab afdf|gbaf edef|gefd edBA|Bcde fdd2||

